X:242
T:Reel 242
M:4/4
K:Amix
L:1/8
A,2EA, CDEC|A,2EA, G,A,B,G,|A,2EA, CDEF|GEFD B,A,A,z:|A2EA AcBA|A2EG cABG|A2EA AGEF|GEDB, B,A,A,2|A2EA A2EA|A2Bc dBGB|AGEA GEDB,|CA,B,G, B,A,A,z|
